!!!OTL: UND WIR SASSEN EINST VERGNUEGT
!!!ARE: Europa, Mitteleuropa, Deutschland, Rheinland, Beckrath
!!!SCT: B0457
!!!YEM: Copyright 1995, estate of Helmut Schaffrath.
**kern
*ICvox
*Ivox
*M4/4
*k[]
*C:
{8.G
16F
=1
8.E
16E
8.E
16E
8E
8G
8.c
16d
=2
4c
4B
4r}
{4c
=3
4c
8G
8G
8.A
16G
8F
8E
=4
2G
4r}
{8G
8G
=5
4e
8.c
16c
4c
8G
8c
=6
4B
4A
4r}
{8d
8d
=7
8c
8B
8A
8G
4G
8A
8B
=8
2c
4r}
{8G
8G
=9
4e
8.c
16c
4c
8G
8c
=10
4B
4A
4r}
{8d
8d
=11
8c
8B
8A
8G
4G
8A
8B
=12
2c
4r}
==
!!!AGN: Liebes - Lied, Leid, Klage, Abschied
!!!ONB: ESAC (Essen Associative Code) Database: BOEHME
!!!AMT: simple quadruple
!!!AIN: vox
!!!EED: Helmut Schaffrath
!!!EEV: 1.0
*-
